X: 23226
T: Learning To Jog
R: reel
M: 4/4
K: Gmixolydian
|:bgfg fdcd|fdcd cBGF|G2FG B2GB|cBcd cdfg|
b3g fdcd|fdcd cBGF|G2FG Bcdc|_BGFD G4:|
|:GGGd- dgfg|fdcd fdc_B|GGGd- dgfg|fdcd f4|
GGGd- dgfg|fdcd fdc_B|G2FG Bcdc|_BGFD G4:|

